icons/midnadark/apps/48/kipi-jalbum.svg

<?xml version="1.0" encoding="UTF-8" standalone="no"?>
<!-- Created with Inkscape (http://www.inkscape.org/) -->

<svg
   xmlns:sketch="http://www.bohemiancoding.com/sketch/ns"
   xmlns:osb="http://www.openswatchbook.org/uri/2009/osb"
   xmlns:dc="http://purl.org/dc/elements/1.1/"
   xmlns:cc="http://creativecommons.org/ns#"
   xmlns:rdf="http://www.w3.org/1999/02/22-rdf-syntax-ns#"
   xmlns:svg="http://www.w3.org/2000/svg"
   xmlns="http://www.w3.org/2000/svg"
   xmlns:xlink="http://www.w3.org/1999/xlink"
   xmlns:sodipodi="http://sodipodi.sourceforge.net/DTD/sodipodi-0.dtd"
   xmlns:inkscape="http://www.inkscape.org/namespaces/inkscape"
   width="48"
   height="48"
   id="svg5453"
   version="1.1"
   inkscape:version="0.91 r13725"
   sodipodi:docname="kipi-jalbum.svg">
  <defs
     id="defs5455">
    <linearGradient
       osb:paint="gradient"
       id="linearGradient4207">
      <stop
         id="stop3371"
         offset="0"
         style="stop-color:#3498db;stop-opacity:1;" />
      <stop
         id="stop3373"
         offset="1"
         style="stop-color:#3498db;stop-opacity:0;" />
    </linearGradient>
    <linearGradient
       id="linearGradient4232">
      <stop
         id="stop4234-0"
         offset="0"
         style="stop-color:#3889e9;stop-opacity:1" />
      <stop
         id="stop4236"
         offset="1"
         style="stop-color:#5ea5fb;stop-opacity:1" />
    </linearGradient>
    <linearGradient
       inkscape:collect="always"
       xlink:href="#linearGradient4232"
       id="linearGradient3426"
       x1="399.57144"
       y1="545.79797"
       x2="399.57144"
       y2="517.79797"
       gradientUnits="userSpaceOnUse" />
    <linearGradient
       inkscape:collect="always"
       xlink:href="#linearGradient4531-4"
       id="linearGradient4181"
       gradientUnits="userSpaceOnUse"
       x1="399.9939"
       y1="545.13873"
       x2="399.9939"
       y2="518.13873" />
    <linearGradient
       id="linearGradient4531-4"
       inkscape:collect="always">
      <stop
         id="stop4533-4"
         offset="0"
         style="stop-color:#5dae33;stop-opacity:1" />
      <stop
         id="stop4535-3"
         offset="1"
         style="stop-color:#9be058;stop-opacity:1" />
    </linearGradient>
  </defs>
  <sodipodi:namedview
     id="base"
     pagecolor="#ffffff"
     bordercolor="#666666"
     borderopacity="1.0"
     inkscape:pageopacity="0"
     inkscape:pageshadow="2"
     inkscape:zoom="6.1060716"
     inkscape:cx="10.697887"
     inkscape:cy="19.113921"
     inkscape:document-units="px"
     inkscape:current-layer="layer1"
     showgrid="true"
     fit-margin-top="0"
     fit-margin-left="0"
     fit-margin-right="0"
     fit-margin-bottom="0"
     inkscape:window-width="1366"
     inkscape:window-height="685"
     inkscape:window-x="0"
     inkscape:window-y="0"
     inkscape:window-maximized="1"
     inkscape:showpageshadow="false"
     borderlayer="true"
     inkscape:object-nodes="true">
    <inkscape:grid
       type="xygrid"
       id="grid3352" />
  </sodipodi:namedview>
  <metadata
     id="metadata5458">
    <rdf:RDF>
      <cc:Work
         rdf:about="">
        <dc:format>image/svg+xml</dc:format>
        <dc:type
           rdf:resource="http://purl.org/dc/dcmitype/StillImage" />
        <dc:title></dc:title>
      </cc:Work>
    </rdf:RDF>
  </metadata>
  <g
     inkscape:label="Capa 1"
     inkscape:groupmode="layer"
     id="layer1"
     transform="translate(-384.57143,-499.798)">
    <g
       id="g4374">
      <g
         inkscape:label="Capa 1"
         id="layer1-5">
        <g
           style="display:inline;enable-background:new"
           id="g4238"
           transform="translate(225.81911,462.44565)">
          <g
             style="display:inline"
             id="layer1-8"
             transform="matrix(0.22655187,0,0,0.22655187,106.94841,54.31088)">
            <g
               style="display:none"
               id="layer6" />
            <g
               id="g4027" />
            <g
               id="g4061" />
            <g
               id="g3751" />
            <g
               id="g3782" />
            <g
               id="g3725" />
            <g
               id="g4370"
               transform="matrix(4.4140002,0,0,4.4140002,59.275211,39.357303)">
              <g
                 id="g4182"
                 transform="matrix(1.7142857,0,0,1.7142857,-30.839285,-12.375017)">
                <g
                   inkscape:label="Capa 1"
                   id="layer1-1"
                   transform="translate(-346.19643,-525.67299)"
                   style="display:inline;enable-background:new">
                  <g
                     id="layer1-9"
                     inkscape:label="Capa 1"
                     transform="matrix(0.87499998,0,0,0.87499998,50.025937,66.450093)">
                    <g
                       transform="matrix(1.1428581,0,0,1.1428581,-57.327415,-75.995025)"
                       id="g4284">
                      <g
                         id="layer1-3"
                         inkscape:label="Capa 1"
                         transform="translate(0.13524268,0.04517549)"
                         style="stroke:none;stroke-width:1.29999995;stroke-miterlimit:4;stroke-dasharray:none;stroke-opacity:1">
                        <circle
                           r="13.999958"
                           cy="531.79791"
                           cx="400.57138"
                           id="path3377"
                           style="opacity:1;fill:url(#linearGradient4181);fill-opacity:1.0;stroke:none;stroke-width:1.29999995;stroke-miterlimit:4;stroke-dasharray:none;stroke-dashoffset:0;stroke-opacity:1" />
                        <circle
                           style="opacity:1;fill:#5ea5fb;fill-opacity:0;stroke:none;stroke-width:1.29999995;stroke-miterlimit:4;stroke-dasharray:none;stroke-dashoffset:0;stroke-opacity:1"
                           id="circle4174"
                           cx="400.57144"
                           cy="531.79797"
                           r="13.999958" />
                        <circle
                           style="opacity:1;fill:url(#linearGradient3426);fill-opacity:1;stroke:none;stroke-width:1.29999995;stroke-miterlimit:4;stroke-dasharray:none;stroke-dashoffset:0;stroke-opacity:1"
                           id="ellipse4233"
                           cx="400.57138"
                           cy="531.79791"
                           r="0" />
                      </g>
                    </g>
                  </g>
                </g>
              </g>
            </g>
          </g>
        </g>
      </g>
    </g>
    <g
       transform="matrix(0.06640625,0,0,0.06640625,391.57143,506.7648)"
       style="fill:none;fill-rule:evenodd;stroke:none;stroke-width:1"
       id="Page-1"
       sketch:type="MSPage">
      <g
         id="Frog-(Light-Background)"
         sketch:type="MSLayerGroup">
        <path
           style="fill:#000000;fill-opacity:0.66666675"
           d="M 13.673828 11.748047 C 10.391979 11.748047 7.7304688 14.306029 7.7304688 17.458984 C 7.7304688 19.56235 8.9194841 21.397666 10.683594 22.388672 C 8.3840854 24.419166 7 26.75926 7 28.769531 C 7 33.17158 14.610719 36.251953 24.001953 36.251953 C 33.388649 36.251953 41 32.922105 41 28.769531 C 41 26.699615 39.635189 24.367685 37.367188 22.359375 C 39.103891 21.361944 40.269531 19.542607 40.269531 17.458984 C 40.269531 14.306029 37.612649 11.748047 34.326172 11.748047 C 31.044322 11.748047 28.382813 14.306029 28.382812 17.458984 C 28.382812 17.62367 28.39396 17.786095 28.408203 17.947266 C 27.000742 17.642713 25.528398 17.458984 24.001953 17.458984 C 22.473282 17.458984 20.999007 17.64871 19.589844 17.960938 C 19.604866 17.795343 19.617188 17.628304 19.617188 17.458984 C 19.617188 14.306029 16.960306 11.748047 13.673828 11.748047 z M 13.673828 14.404297 C 15.45398 14.404297 16.894531 15.786166 16.894531 17.492188 C 16.894531 17.995698 16.756788 18.464322 16.533203 18.884766 C 15.333534 19.351252 14.203789 19.903753 13.183594 20.533203 C 11.640119 20.304717 10.453125 19.033573 10.453125 17.492188 C 10.453125 15.786166 11.896128 14.404297 13.673828 14.404297 z M 34.326172 14.404297 C 36.106324 14.404297 37.546875 15.786166 37.546875 17.492188 C 37.546875 19.008483 36.402437 20.267097 34.894531 20.525391 C 33.847545 19.880624 32.685613 19.318824 31.447266 18.847656 C 31.235906 18.436663 31.105469 17.980536 31.105469 17.492188 C 31.105469 15.786166 32.548471 14.404297 34.326172 14.404297 z M 13.640625 16.263672 C 12.944376 16.263672 12.378906 16.795655 12.378906 17.458984 C 12.378906 18.118857 12.944376 18.654297 13.640625 18.654297 C 14.339037 18.654297 14.902344 18.118857 14.902344 17.458984 C 14.902344 16.795655 14.339037 16.263672 13.640625 16.263672 z M 34.292969 16.263672 C 33.59672 16.263672 33.03125 16.795655 33.03125 17.458984 C 33.03125 18.118857 33.59672 18.654297 34.292969 18.654297 C 34.991381 18.654297 35.554688 18.118857 35.554688 17.458984 C 35.554688 16.795655 34.991381 16.263672 34.292969 16.263672 z M 20.878906 21.576172 C 21.208492 21.576172 21.476563 21.829585 21.476562 22.136719 C 21.476562 22.45302 21.208492 22.705078 20.878906 22.705078 C 20.549321 22.705078 20.28125 22.45302 20.28125 22.136719 C 20.28125 21.829585 20.549321 21.576172 20.878906 21.576172 z M 27.121094 21.576172 C 27.450295 21.576172 27.71875 21.829585 27.71875 22.136719 C 27.71875 22.45302 27.450295 22.705078 27.121094 22.705078 C 26.79129 22.705078 26.523437 22.45302 26.523438 22.136719 C 26.523438 21.829585 26.79129 21.576172 27.121094 21.576172 z "
           transform="matrix(15.058824,0,0,15.058824,-105.41176,-104.91181)"
           id="Face" />
        <g
           id="Eyes"
           transform="translate(9.251234,72)"
           sketch:type="MSShapeGroup">
          <g
             id="Left"
             transform="translate(0.748766,0)" />
          <g
             id="Right"
             transform="translate(311.74877,0)" />
        </g>
        <g
           style="fill:#ffffff"
           id="Nose"
           transform="translate(199.76256,219.43094)"
           sketch:type="MSShapeGroup" />
      </g>
    </g>
  </g>
</svg>

<svg xmlns="http://www.w3.org/2000/svg" viewBox="0 0 48 48"><defs><linearGradient y1="545.8" x2="0" y2="517.8" gradientUnits="userSpaceOnUse"><stop stop-color="#3889e9"/><stop offset="1" stop-color="#5ea5fb"/></linearGradient><linearGradient id="0" gradientUnits="userSpaceOnUse" y1="545.14" x2="0" y2="518.14"><stop stop-color="#5dae33"/><stop offset="1" stop-color="#9be058"/></linearGradient></defs><g transform="translate(-384.57-499.8)"><g transform="matrix(1.71428 0 0 1.71428-278.11-387.84)" enable-background="new"><circle r="14" cy="531.8" cx="400.57" fill="url(#0)"/><circle cx="400.57" cy="531.8" r="14" fill="#5ea5fb" fill-opacity="0"/></g><path d="m13.674 11.748c-3.282 0-5.943 2.558-5.943 5.711 0 2.103 1.189 3.939 2.953 4.93-2.3 2.03-3.684 4.371-3.684 6.381 0 4.402 7.611 7.482 17 7.482 9.387 0 16.998-3.33 16.998-7.482 0-2.07-1.365-4.402-3.633-6.41 1.737-.997 2.902-2.817 2.902-4.9 0-3.153-2.657-5.711-5.943-5.711-3.282 0-5.943 2.558-5.943 5.711 0 .165.011.327.025.488-1.407-.305-2.88-.488-4.406-.488-1.529 0-3 .19-4.412.502.015-.166.027-.333.027-.502 0-3.153-2.657-5.711-5.943-5.711m0 2.656c1.78 0 3.221 1.382 3.221 3.088 0 .504-.138.972-.361 1.393-1.2.466-2.329 1.019-3.35 1.648-1.543-.228-2.73-1.5-2.73-3.041 0-1.706 1.443-3.088 3.221-3.088m20.652 0c1.78 0 3.221 1.382 3.221 3.088 0 1.516-1.144 2.775-2.652 3.033-1.047-.645-2.209-1.207-3.447-1.678-.211-.411-.342-.867-.342-1.355 0-1.706 1.443-3.088 3.221-3.088m-20.686 1.859c-.696 0-1.262.532-1.262 1.195 0 .66.565 1.195 1.262 1.195.698 0 1.262-.535 1.262-1.195 0-.663-.563-1.195-1.262-1.195m20.652 0c-.696 0-1.262.532-1.262 1.195 0 .66.565 1.195 1.262 1.195.698 0 1.262-.535 1.262-1.195 0-.663-.563-1.195-1.262-1.195m-13.414 5.313c.33 0 .598.253.598.561 0 .316-.268.568-.598.568-.33 0-.598-.252-.598-.568 0-.307.268-.561.598-.561m6.242 0c.329 0 .598.253.598.561 0 .316-.268.568-.598.568-.33 0-.598-.252-.598-.568 0-.307.268-.561.598-.561" transform="translate(384.57 499.8)" fill="#000" fill-opacity=".667" fill-rule="evenodd"/></g></svg>
